status/24/audio-volume-low.svg

<svg version="1.1" xmlns="http://www.w3.org/2000/svg" viewBox="0 0 24 24">
<defs id="defs3051">
<style type="text/css" id="current-color-scheme">
.ColorScheme-Text {
color:#4d4d4d;
}
</style>
</defs>
<path style="opacity:1;fill:currentColor;fill-opacity:1;stroke:none" id="path4226" d="M 11.988281,4 7,8.9902344 V 9 v 1 4 1 0.0098 L 11.988281,20 H 13 V 19.597656 4.4023438 4 Z M 4,9 v 1 4 1 H 6 V 14 10 9 Z" class="ColorScheme-Text"/>
<path style="opacity:0.5;fill:currentColor;fill-opacity:1;stroke:none" id="path4183" d="m 14.865234,4.5371094 -0.24414,0.9765625 A 7,7 0 0 1 19,12 7,7 0 0 1 14.619141,18.478516 l 0.24414,0.974609 A 8,8 0 0 0 20,12 8,8 0 0 0 14.865234,4.5371094 Z M 15.324219,8.28125 14.785156,9.1425781 A 4,4 0 0 1 16,12 4,4 0 0 1 14.789062,14.861328 l 0.539063,0.863281 A 5,5 0 0 0 17,12 5,5 0 0 0 15.324219,8.28125 Z" class="ColorScheme-Text"/>
</svg>

<svg width="24" version="1.1" xmlns="http://www.w3.org/2000/svg" viewBox="0 0 24 24" height="24">
<defs id="defs3051">
<style type="text/css" id="current-color-scheme">
.ColorScheme-Text {
color:#4d4d4d;
}
</style>
</defs>
<path style="fill:currentColor" d="m 11.9883,4 l -4.9883,4.9902 v 0.0097656 1 4 1 0.009766 l 4.9883,4.9902 h 1.01172 v -0.402344 -15.1953 -0.402344 h -1.01172 z  m 3.3359,4.2812 l -.5391,.8613 a 4,4 0 0,1 1.21484,2.85742 4,4 0 0,1 -1.21094,2.86133 l .5391,.8633 a 5,5 0 0,0 1.67188,-3.72461 5,5 0 0,0 -1.67578,-3.71875 z  m -11.3242,.7188 v 1 4 1 h 2 v -1 -4 -1 h -2 z " class="ColorScheme-Text"/>
<path style="opacity:.2;fill:currentColor" d="m 15.2148,1.4824 l -.2129,.9785 a 10,10 0 0,1 6.99805,9.53906 10,10 0 0,1 -7,9.53906 l .2148,.9805 a 11,11 0 0,0 7.78516,-10.5195 11,11 0 0,0 -7.78516,-10.5176 z  m -.3496,3.0547 l -.2441,.9766 a 7,7 0 0,1 4.37891,6.48633 7,7 0 0,1 -4.38086,6.47852 l .2441,.9746 a 8,8 0 0,0 5.13672,-7.45312 8,8 0 0,0 -5.13477,-7.46289 z " class="ColorScheme-Text"/>
</svg>
